X:1
T:Non miri il mio bel sole
T:Enrico Radesca fi Foggia
T:Source : Secondo Libro delle canzonette, madrigali et arie alla Romana a due voci--- Milano--- Herede di S.Tini et F.Lomazzo---1606. Editor : André Vierendeels (14/11/16).
T:Notes : Original clefs : C1, F4 "Per cantar e suonar con il chitarone o spinetta"
T:Non miri il mio bel sole
T:©
T:©
T:©
C:Enrico Radesca fi Foggia
Z:©
%%score 1 2
L:1/8
Q:1/4=120
M:4/4
K:C
V:1 treble nm="Soprano" snm="S"
V:2 bass nm="MusicXML Part"
V:1
 d4 c4 | A2 B4 ^c2 | d4 A4 | d4 c4 | B2 G4 A2 | A4 G4 | d4 c4 | A2 B4 e2 | d4 c4 | d4 c4 | %10
w: Non mi-|r'il mio bel|so- le,|chi lui|sol non ho-|no- ra,|non mi-|r'il mio bel|so- le,|chi lui|
 B2 G4 A2 | A4 G4 |[M:8/4] A2 A2 A2 A2 A2 A4 A2 |[M:4/4] d2 cc B4 | A2 d2 d2 c2 | B2 A2 A4 | %16
w: sol non ho-|no- ra,|com' io ch'al- tro non bra- mo,|al- tro non mi-|ro, da l'u- na'e|l'al- tr'au- ro-|
[M:2/4] G4 :: z B cd |[M:4/4] e2 z f d4 | c4 z2 e2 | dBcA BAB^c | d4 A4 | A2 A2 A2 EE | ^F4 F4 | %24
w: ra,|a gran ra-|gion so- spi-|ro, e|ceg- gio per giu- stis- si- ma mer-|ce- de,|d'un' a- mor, d'u- na|fe- de,|
 ^F2 F2 B2 DD | E2 E2 A2 A2 | B4 B4 | ^c2 c2 d4- | d4 G2 A2 | A8 | G8 | d4 e4 | d8- | d4 c2 _B2 | %34
w: d'un lan- guir per bel-|lez- ze'al mon- do|so- le,|so- la sol'|_ il mio|so-|le,|so- la|sol'|_ il mio|
 A8 | G8 :| %36
w: so-|le.|
V:2
"^BC""^Bass" G,4 E,4 | ^F,2 G,4 E,2 | D,4 D,4 | B,,4 C,4 | D,2 E,4 C,2 |"^B" D,4 G,,4 | G,4 E,4 | %7
w: Non mi-|r'il mio bel|so- le,|chi lui|sol non ho-|no- ra,|non mi-|
 ^F,2 G,4 C,2 | G,4 C,4 | B,,4 C,4 |"^B" D,2 E,4 C,2 | D,4 G,,4 | %12
w: r'il mio bel|so- le,|chi lui|sol non ho-|no- ra,|
[M:8/4] F,2 F,2 F,2 F,2 F,2 F,4 F,2 |[M:4/4] D,2 A,,A,, E,4 | A,,2 G,,2 G,,2 A,,2 | B,,3 C, D,4 | %16
w: com' io ch'al- tro non bra- mo,|al- tro non mi-|ro, da l'u- na'e|l'al- tr'au- ro-|
[M:2/4] G,,4 :: z G, A,B, |[M:4/4] C3 F, G,4 | C,4 z2 C,2 |"^B" G,G,F,F, E,E,E,E, | D,4 D,4 | %22
w: ra,|a gran ra-|gion so- spi-|ro, e|ceg- gio per giu- stis- si- ma mer-|ce- de,|
 A,,2 A,,2 A,,2 A,,A,, | D,4 D,4 | D,2 D,2 B,,2 B,,B,, |"^B" C,2 C,2 A,,2 A,,2 | E,4 E,4 | %27
w: d'un a- mor, d'u- na|fe- de,|d'un lan- guir per bel-|lez- ze'al mon- do|so- le,|
 z4 ^F,2 F,2 | G,4 B,,2 C,2 | D,8 |"^B" G,,8 | G,4 C,4 | G,4 F,2 E,2 | D,8- | D,8 | G,,8 :| %36
w: So- la|sol' il mio|so-|le,|so- la|sol' il mio|so-||le.|

